images/svg/email-black.svg

<svg width="18" height="24" viewBox="0 0 18 24" fill="none" xmlns="http://www.w3.org/2000/svg">
<g clip-path="url(#clip0_297083_8311)">
<path d="M15 6H3C2.175 6 1.5075 6.675 1.5075 7.5L1.5 16.5C1.5 17.325 2.175 18 3 18H15C15.825 18 16.5 17.325 16.5 16.5V7.5C16.5 6.675 15.825 6 15 6ZM14.7 9.1875L9.3975 12.5025C9.1575 12.6525 8.8425 12.6525 8.6025 12.5025L3.3 9.1875C3.1125 9.0675 3 8.865 3 8.6475C3 8.145 3.5475 7.845 3.975 8.1075L9 11.25L14.025 8.1075C14.4525 7.845 15 8.145 15 8.6475C15 8.865 14.8875 9.0675 14.7 9.1875Z" fill="#2E2F42"/>
</g>
<defs>
<clipPath id="clip0_297083_8311">
<rect width="18" height="24" fill="white"/>
</clipPath>
</defs>
</svg>

<svg xmlns="http://www.w3.org/2000/svg" width="18" height="24" fill="none"><g clip-path="url(#a)"><path fill="#2E2F42" d="M15 6H3c-.825 0-1.492.675-1.492 1.5l-.008 9c0 .825.675 1.5 1.5 1.5h12c.825 0 1.5-.675 1.5-1.5v-9c0-.825-.675-1.5-1.5-1.5Zm-.3 3.188-5.302 3.314a.759.759 0 0 1-.796 0L3.3 9.188a.637.637 0 1 1 .675-1.08L9 11.25l5.025-3.143a.637.637 0 1 1 .675 1.08Z"/></g><defs><clipPath id="a"><path fill="#fff" d="M0 0h18v24H0z"/></clipPath></defs></svg>
